!! 00000] TT[WS
!!!OTL: Gongchandang enqing changyouchang
!!!ARE: Asia, China, Shanxi Yongji
!! Ethnic Group: Han
!! WI, 276 (2)
!!!SCT: J0329
!!!YEM: Copyright 1995, estate of Helmut Schaffrath.
**kern
*ICvox
*Ivox
*M2/4
*k[b-]
*F:
{8cc
8cc
8g
8g
=1
8a
8cc
4g
=2
8cc
8a
8cc
8dd
=3
8.a
16cc
4g}
=4
{4cc
4g
=5
8.cc
16dd
8a
8g
=6
8f
4d
8a
=7
2g}
=8
{8f
8d
4f
=9
4cc
8a
8cc
=10
8g
8a
8cc
8a
=11
8g
8a
8cc
8a
=12
8g
8a
8g
8f}
=13
{8c
8f
8g
8a
=14
8g
8f
8e-
8d
=15
4.c
8d
=16
2c}
=17
{8.a
16g
8f
8a
=18
2g
=19
8c
8f
8g
8a
=20
8g
8f
8e-
8d
=21
4.c
8d
=22
2c}
==
!!!AGN: Xiaodiao. Xinminge, Xuanchuan
!! Neue Text. Politische Liede
!!!ONB: ESAC (Essen Associative Code) Database: CHINA
!!!AMT: simple duple
!!!AIN: vox
!!!EED: Helmut Schaffrath
!!!EEV: 1.0
*-
